svg/boy_1015y_positive.svg

<svg width="48" height="48" viewBox="0 0 48 48" fill="none" xmlns="http://www.w3.org/2000/svg">
<path fill-rule="evenodd" clip-rule="evenodd" d="M20.0118 3C20.2468 3.82059 20.9968 4.07689 20.9338 4.89648C19.3568 4.30348 18.3338 4.90178 16.6678 4.71678C17.8548 5.30807 18.6698 4.97838 19.6228 5.31047C16.2998 6.29886 14.3949 8.57933 14.0039 12.0859C13.9179 13.7739 13.9099 15.4668 13.9199 17.1578L13.7049 17.0998C12.9479 16.8928 12.6909 17.2798 12.7729 18.5038C12.8649 19.8508 13.3279 21.0028 14.0699 21.7318C14.3849 22.0408 14.4849 22.2168 14.6839 22.8048C15.7749 26.0287 17.7708 28.6287 20.2658 30.0717C22.4108 31.1586 24.7237 31.4646 27.6537 30.0757C30.4327 28.6117 31.9366 25.9667 33.1816 23.1167C33.5196 22.1978 33.5986 22.0548 34.0136 21.6168C34.5336 21.0668 34.7776 20.5728 35.0656 19.4898C35.2286 18.8808 35.2576 18.6218 35.2296 18.0508C35.1986 17.4008 35.1816 17.3408 34.9746 17.1618C34.7586 16.9768 34.7146 16.9718 34.2266 17.0778C33.9196 14.2299 34.2836 12.8409 33.5176 9.97061C33.1926 9.04492 32.9046 8.52473 32.3006 7.76944C31.3127 6.53466 29.8627 5.66947 27.9707 5.18547C27.3557 5.02847 26.5427 4.92618 25.6637 4.86718C25.4147 4.84748 25.1867 4.83098 24.7887 4.82418C24.4977 4.81568 24.2057 4.80718 23.9118 4.80858C23.7558 4.80928 23.6028 4.81678 23.4468 4.82028C23.3988 4.82098 23.3498 4.81948 23.3028 4.82028C24.4467 3.79079 24.8117 4.16899 26.8787 3.1289C24.4407 3.91449 24.6087 2.31701 22.2708 4.03519C21.9088 3.2815 20.5858 3.65409 20.0118 3ZM26.1367 12.4259C26.2747 12.4299 26.4747 12.4529 26.7397 12.4879C28.4187 12.7119 29.5777 13.3039 31.3847 14.8629C31.8567 15.2708 32.3026 15.6708 32.3766 15.7538C32.5196 15.9138 32.7006 16.9068 32.7926 18.0268C32.8216 18.3838 32.8776 18.6508 32.9176 18.6268C32.9516 18.6058 33.0526 18.4368 33.1446 18.2638C34.3496 17.8788 34.0566 18.3948 33.9116 19.3028C33.6536 20.2908 33.4346 20.7408 32.9686 21.2438C32.5976 21.6438 32.5276 21.7758 32.2246 22.6148C31.1127 25.2017 29.7797 27.6217 27.2727 28.9687C24.6487 30.2367 22.5778 29.9567 20.6558 28.9647C18.4218 27.6467 16.6328 25.2717 15.6559 22.3278C15.4779 21.7908 15.3869 21.6318 15.1049 21.3498C14.1509 19.9708 13.2389 17.8708 15.0179 18.2598C15.0289 18.2738 15.0639 18.3078 15.0719 18.3198L15.2419 18.5548L15.2479 18.0758C15.2599 16.7138 15.7589 15.1378 16.5608 13.9319C16.8958 13.4259 16.9858 13.4139 17.9608 13.7579C19.5818 14.3299 20.9578 15.1758 22.5038 16.5508C23.1878 17.1588 23.2168 17.1418 23.2188 16.1268C23.2198 15.3508 23.0838 14.7629 22.7828 14.2419C22.6668 14.0399 22.6248 13.8979 22.6738 13.8669C22.7178 13.8399 22.9548 13.8749 23.2008 13.9449C24.8387 14.4109 26.2827 15.2378 27.7517 16.5528C28.0457 16.8158 28.3077 17.0308 28.3317 17.0308C28.4237 17.0308 28.3687 16.7698 28.1047 15.9548C27.7457 14.8449 27.2607 14.0389 26.4427 13.1909C25.8587 12.5859 25.7217 12.4139 26.1367 12.4259ZM20.3068 17.9358C20.1682 17.9356 20.0309 17.9626 19.9027 18.0155C19.7745 18.0683 19.6581 18.1459 19.5599 18.2438C19.4617 18.3417 19.3838 18.4579 19.3306 18.5859C19.2774 18.7139 19.25 18.8512 19.2498 18.9898C19.2498 19.1285 19.2772 19.2659 19.3303 19.394C19.3835 19.5221 19.4614 19.6385 19.5595 19.7365C19.6577 19.8345 19.7742 19.9121 19.9025 19.965C20.0307 20.0179 20.1681 20.045 20.3068 20.0448C20.5864 20.0445 20.8545 19.9332 21.0521 19.7354C21.2497 19.5376 21.3608 19.2694 21.3608 18.9898C21.3605 18.7104 21.2494 18.4424 21.0518 18.2448C20.8542 18.0472 20.5862 17.9361 20.3068 17.9358ZM27.7477 18.1148C27.4679 18.1148 27.1996 18.226 27.0017 18.4238C26.8039 18.6217 26.6927 18.89 26.6927 19.1698C26.6927 19.4496 26.8039 19.7179 27.0017 19.9158C27.1996 20.1136 27.4679 20.2248 27.7477 20.2248C28.0275 20.2248 28.2958 20.1136 28.4937 19.9158C28.6915 19.7179 28.8027 19.4496 28.8027 19.1698C28.8027 18.89 28.6915 18.6217 28.4937 18.4238C28.2958 18.226 28.0275 18.1148 27.7477 18.1148ZM20.5388 25.5917C20.5708 26.7687 22.1238 27.7127 24.0287 27.7127C25.9327 27.7117 27.4837 26.7677 27.5157 25.5917C24.7847 26.6187 22.5328 26.4337 20.5388 25.5917ZM4 34.0156V44.0155H43.9975V34.0156H4ZM13.4469 35.3456C14.2219 35.3456 14.8159 35.6016 15.2269 36.1126C15.6369 36.6206 15.8459 37.3516 15.8549 38.3066V39.6145C15.8549 40.5985 15.6529 41.3515 15.2459 41.8725C14.8389 42.3935 14.2419 42.6535 13.4569 42.6535C12.6819 42.6535 12.0899 42.3975 11.6799 41.8865C11.2689 41.3745 11.0589 40.6435 11.0489 39.6885V38.3786C11.0489 37.3856 11.2539 36.6316 11.6639 36.1166C12.0779 35.6026 12.6719 35.3456 13.4469 35.3456ZM8.60154 35.4336H8.75384V42.5565H7.34176V37.1146L5.65618 37.6366V36.4876L8.60154 35.4336ZM23.9793 35.4336H24.1303V42.5565H22.7204V37.1146L21.0344 37.6366V36.4876L23.9793 35.4336ZM27.0673 35.4426H31.0543V36.6206H28.2243L28.0483 38.1496C28.3833 37.9706 28.7403 37.8806 29.1183 37.8806C29.7963 37.8806 30.3283 38.0916 30.7123 38.5116C31.0963 38.9315 31.2883 39.5195 31.2883 40.2745C31.2883 40.7345 31.1903 41.1465 30.9953 41.5115C30.8033 41.8725 30.5253 42.1535 30.1633 42.3545C29.8023 42.5535 29.3763 42.6535 28.8843 42.6535C28.4543 42.6535 28.0553 42.5665 27.6873 42.3945C27.3183 42.2185 27.0283 41.9735 26.8133 41.6575C26.6023 41.3415 26.4893 40.9815 26.4763 40.5775H27.8723C27.9013 40.8735 28.0053 41.1045 28.1813 41.2705C28.3603 41.4335 28.5933 41.5155 28.8803 41.5155C29.1993 41.5155 29.4443 41.4015 29.6163 41.1735C29.7893 40.9425 29.8763 40.6165 29.8763 40.1965C29.8763 39.7925 29.7763 39.4835 29.5773 39.2695C29.3783 39.0545 29.0983 38.9445 28.7333 38.9445C28.3983 38.9445 28.1253 39.0345 27.9173 39.2105L27.7803 39.3375L26.6573 39.0585L27.0673 35.4426ZM31.7183 35.4426H33.3252L34.7962 38.6476L36.2742 35.4426H37.8782L35.5422 39.9765V42.5565H34.0522V39.9765L31.7183 35.4426ZM13.4465 36.4876C13.1145 36.4876 12.8705 36.6176 12.7105 36.8746C12.5545 37.1286 12.4705 37.5276 12.4605 38.0716V39.8005C12.4605 40.3795 12.5385 40.8115 12.6945 41.0955C12.8545 41.3755 13.1085 41.5155 13.4565 41.5155C13.8015 41.5155 14.0515 41.3795 14.2045 41.1085C14.3575 40.8385 14.4385 40.4255 14.4445 39.8685V38.1796C14.4445 37.5896 14.3635 37.1616 14.2005 36.8946C14.0415 36.6236 13.7885 36.4876 13.4465 36.4876ZM40.1791 37.1736C40.8501 37.1736 41.3861 37.3306 41.7861 37.6456C42.1901 37.9616 42.3921 38.3716 42.3921 38.8766H40.9791C40.9791 38.6746 40.9141 38.5086 40.7841 38.3786C40.6541 38.2446 40.4501 38.1796 40.1731 38.1796C39.9352 38.1796 39.7522 38.2316 39.6222 38.3396C39.4922 38.4466 39.4272 38.5836 39.4272 38.7496C39.4272 38.9055 39.4992 39.0326 39.6452 39.1305C39.7951 39.2245 40.0461 39.3085 40.3971 39.3805C40.7491 39.4485 41.0471 39.5265 41.2881 39.6145C42.0341 39.8885 42.4051 40.3625 42.4051 41.0365C42.4051 41.5185 42.2001 41.9085 41.7861 42.2085C41.3731 42.5045 40.8371 42.6535 40.1831 42.6535C39.7402 42.6535 39.3462 42.5755 39.0012 42.4195C38.6592 42.2595 38.3902 42.0425 38.1942 41.7695C37.9992 41.4925 37.9012 41.1935 37.9012 40.8745H39.2412C39.2542 41.1255 39.3462 41.3195 39.5192 41.4525C39.6912 41.5865 39.9222 41.6515 40.2121 41.6515C40.4821 41.6515 40.6861 41.6025 40.8231 41.5015C40.9631 41.3975 41.0341 41.2615 41.0341 41.0955C41.0341 40.9225 40.9471 40.7865 40.7741 40.6885C40.6051 40.5875 40.3321 40.4995 39.9541 40.4215C38.6972 40.1575 38.0672 39.6225 38.0672 38.8176C38.0672 38.3486 38.2622 37.9586 38.6492 37.6456C39.0402 37.3306 39.5502 37.1736 40.1791 37.1736ZM16.8664 38.9406H19.6164V40.0795H16.8664V38.9406Z" fill="#333333"/>
</svg>

<?xml version="1.0" encoding="UTF-8" standalone="no"?>
<!-- Created with Inkscape (http://www.inkscape.org/) -->
<svg id="svg8" xmlns:rdf="http://www.w3.org/1999/02/22-rdf-syntax-ns#" xmlns="http://www.w3.org/2000/svg" height="48" viewBox="0 0 12.7 12.7" width="48" version="1.1" xmlns:cc="http://creativecommons.org/ns#" xmlns:dc="http://purl.org/dc/elements/1.1/">
 <title id="title4753">UIO-icon</title>
 <metadata id="metadata5">
  <rdf:RDF>
   <cc:Work rdf:about="">
    <dc:format>image/svg+xml</dc:format>
    <dc:type rdf:resource="http://purl.org/dc/dcmitype/StillImage"/>
    <dc:title>UIO-icon</dc:title>
    <dc:creator>
     <cc:Agent>
      <dc:title>Joaquín Urbano</dc:title>
     </cc:Agent>
    </dc:creator>
    <dc:rights>
     <cc:Agent>
      <dc:title>GPL</dc:title>
     </cc:Agent>
    </dc:rights>
   </cc:Work>
  </rdf:RDF>
 </metadata>
 <path id="rect4852" d="m20.012 3c0.235 0.8206 0.985 1.0769 0.922 1.8965-1.577-0.593-2.6 0.0053-4.266-0.1797 1.187 0.5913 2.002 0.2616 2.955 0.5937-3.323 0.9884-5.228 3.2689-5.619 6.7755-0.086 1.688-0.094 3.381-0.084 5.072l-0.215-0.058c-0.757-0.207-1.014 0.18-0.932 1.404 0.092 1.347 0.555 2.499 1.297 3.228 0.315 0.309 0.415 0.485 0.614 1.073 1.091 3.224 3.087 5.824 5.582 7.267 2.145 1.087 4.458 1.393 7.388 0.004 2.779-1.464 4.283-4.109 5.528-6.959 0.338-0.919 0.417-1.062 0.832-1.5 0.52-0.55 0.764-1.044 1.052-2.127 0.163-0.609 0.192-0.868 0.164-1.439-0.031-0.65-0.048-0.71-0.255-0.889-0.216-0.185-0.26-0.19-0.748-0.084-0.307-2.848 0.057-4.237-0.709-7.1073-0.325-0.9257-0.613-1.4459-1.217-2.2012-0.988-1.2348-2.438-2.1-4.33-2.584-0.615-0.157-1.428-0.2593-2.307-0.3183-0.249-0.0197-0.477-0.0362-0.875-0.043-0.291-0.0085-0.583-0.017-0.877-0.0156-0.156 0.0007-0.309 0.0082-0.465 0.0117-0.048 0.0007-0.097-0.0008-0.144 0 1.144-1.0295 1.509-0.6513 3.576-1.6914-2.438 0.7856-2.27-0.8119-4.608 0.9063-0.362-0.7537-1.685-0.3811-2.259-1.0352zm6.125 9.426c0.138 0.004 0.338 0.027 0.603 0.062 1.679 0.224 2.838 0.816 4.645 2.375 0.472 0.408 0.918 0.808 0.992 0.891 0.143 0.16 0.324 1.153 0.416 2.273 0.029 0.357 0.085 0.624 0.125 0.6 0.034-0.021 0.135-0.19 0.227-0.363 1.205-0.385 0.912 0.131 0.767 1.039-0.258 0.988-0.477 1.438-0.943 1.941-0.371 0.4-0.441 0.532-0.744 1.371-1.112 2.587-2.445 5.007-4.952 6.354-2.624 1.268-4.695 0.988-6.617-0.004-2.234-1.318-4.023-3.693-5-6.637-0.178-0.537-0.269-0.696-0.551-0.978-0.954-1.379-1.866-3.479-0.087-3.09 0.011 0.014 0.046 0.048 0.054 0.06l0.17 0.235 0.006-0.479c0.012-1.362 0.511-2.938 1.313-4.144 0.335-0.506 0.425-0.518 1.4-0.174 1.621 0.572 2.997 1.418 4.543 2.793 0.684 0.608 0.713 0.591 0.715-0.424 0.001-0.776-0.135-1.364-0.436-1.885-0.116-0.202-0.158-0.344-0.109-0.375 0.044-0.027 0.281 0.008 0.527 0.078 1.638 0.466 3.082 1.293 4.551 2.608 0.294 0.263 0.556 0.478 0.58 0.478 0.092 0 0.037-0.261-0.227-1.076-0.359-1.11-0.844-1.916-1.662-2.764-0.584-0.605-0.721-0.777-0.306-0.765zm-5.83 5.51a1.0551 1.0551 0 0 0 -1.057 1.054 1.0551 1.0551 0 0 0 1.057 1.055 1.0551 1.0551 0 0 0 1.054 -1.055 1.0551 1.0551 0 0 0 -1.054 -1.054zm7.441 0.179a1.0551 1.0551 0 0 0 -1.055 1.055 1.0551 1.0551 0 0 0 1.055 1.055 1.0551 1.0551 0 0 0 1.055 -1.055 1.0551 1.0551 0 0 0 -1.055 -1.055zm-7.209 7.477c0.032 1.177 1.585 2.121 3.49 2.121 1.904-0.001 3.455-0.945 3.487-2.121-2.731 1.027-4.983 0.842-6.977 0zm-16.539 8.424v10h39.998v-10h-39.998zm9.447 1.33c0.775 0 1.369 0.256 1.78 0.767 0.41 0.508 0.619 1.239 0.628 2.194v1.308c0 0.984-0.202 1.737-0.609 2.258s-1.004 0.781-1.789 0.781c-0.775 0-1.367-0.256-1.777-0.767-0.411-0.512-0.621-1.243-0.631-2.198v-1.31c0-0.993 0.205-1.747 0.615-2.262 0.414-0.514 1.008-0.771 1.783-0.771zm-4.8454 0.088h0.1523v7.123h-1.4121v-5.442l-1.6856 0.522v-1.149l2.9454-1.054zm15.378 0h0.151v7.123h-1.41v-5.442l-1.686 0.522v-1.149l2.945-1.054zm3.088 0.009h3.987v1.178h-2.83l-0.176 1.529c0.335-0.179 0.692-0.269 1.07-0.269 0.678 0 1.21 0.211 1.594 0.631s0.576 1.008 0.576 1.763c0 0.46-0.098 0.872-0.293 1.237-0.192 0.361-0.47 0.642-0.832 0.843-0.361 0.199-0.787 0.299-1.279 0.299-0.43 0-0.829-0.087-1.197-0.259-0.369-0.176-0.659-0.421-0.874-0.737-0.211-0.316-0.324-0.676-0.337-1.08h1.396c0.029 0.296 0.133 0.527 0.309 0.693 0.179 0.163 0.412 0.245 0.699 0.245 0.319 0 0.564-0.114 0.736-0.342 0.173-0.231 0.26-0.557 0.26-0.977 0-0.404-0.1-0.713-0.299-0.927-0.199-0.215-0.479-0.325-0.844-0.325-0.335 0-0.608 0.09-0.816 0.266l-0.137 0.127-1.123-0.279 0.41-3.616zm4.651 0h1.607l1.471 3.205 1.478-3.205h1.604l-2.336 4.534v2.58h-1.49v-2.58l-2.334-4.534zm-18.272 1.045c-0.332 0-0.576 0.13-0.736 0.387-0.156 0.254-0.24 0.653-0.25 1.197v1.729c0 0.579 0.078 1.011 0.234 1.295 0.16 0.28 0.414 0.42 0.762 0.42 0.345 0 0.595-0.136 0.748-0.407 0.153-0.27 0.234-0.683 0.24-1.24v-1.689c0-0.59-0.081-1.018-0.244-1.285-0.159-0.271-0.412-0.407-0.754-0.407zm26.733 0.686c0.671 0 1.207 0.157 1.607 0.472 0.404 0.316 0.606 0.726 0.606 1.231h-1.413c0-0.202-0.065-0.368-0.195-0.498-0.13-0.134-0.334-0.199-0.611-0.199-0.238 0-0.421 0.052-0.551 0.16-0.13 0.107-0.195 0.244-0.195 0.41 0 0.156 0.072 0.283 0.218 0.381 0.15 0.094 0.401 0.178 0.752 0.25 0.352 0.068 0.65 0.146 0.891 0.234 0.746 0.274 1.117 0.748 1.117 1.422 0 0.482-0.205 0.872-0.619 1.172-0.413 0.296-0.949 0.445-1.603 0.445-0.443 0-0.837-0.078-1.182-0.234-0.342-0.16-0.611-0.377-0.807-0.65-0.195-0.277-0.293-0.576-0.293-0.895h1.34c0.013 0.251 0.105 0.445 0.278 0.578 0.172 0.134 0.403 0.199 0.693 0.199 0.27 0 0.474-0.049 0.611-0.15 0.14-0.104 0.211-0.24 0.211-0.406 0-0.173-0.087-0.309-0.26-0.407-0.169-0.101-0.442-0.189-0.82-0.267-1.257-0.264-1.887-0.799-1.887-1.604 0-0.469 0.195-0.859 0.582-1.172 0.391-0.315 0.901-0.472 1.53-0.472zm-23.313 1.767h2.75v1.139h-2.75v-1.139z" fill-rule="evenodd" transform="scale(.26458)" stroke-width="3.7795" fill="#333"/>
</svg>
